resources/haticons/SVG/tty.svg

<!-- Generated by IcoMoon.io -->
<svg version="1.1" xmlns="http://www.w3.org/2000/svg" width="24" height="24" viewBox="0 0 24 24">
<title>tty</title>
<path d="M14.016 3.984h1.969v2.016h-1.969v-2.016zM12.984 6.984h2.016v2.016h-2.016v-2.016zM11.016 3.984h1.969v2.016h-1.969v-2.016zM18 9h-2.016v-2.016h2.016v2.016zM18.984 6h-1.969v-2.016h1.969v2.016zM21 9h-2.016v-2.016h2.016v2.016zM21.984 6h-1.969v-2.016h1.969v2.016zM14.625 14.391l-2.531 2.531q-3.797-2.203-6-6l2.531-2.531q0.375-0.375 0.281-0.891l-0.75-3.703q-0.047-0.328-0.328-0.563t-0.656-0.234h-4.125q-0.422 0-0.727 0.305t-0.305 0.727q0.141 2.156 0.75 4.172t1.688 3.797q1.172 2.063 2.836 3.727t3.727 2.836q1.781 1.031 3.773 1.664t4.195 0.727q0.422 0.047 0.727-0.258t0.305-0.727v-4.172q0-0.328-0.234-0.609t-0.563-0.328l-3.703-0.75q-0.516-0.094-0.891 0.281zM14.016 9.984h1.969v2.016h-1.969v-2.016zM11.016 9.984h1.969v2.016h-1.969v-2.016zM18.984 12h-1.969v-2.016h1.969v2.016zM21.984 12h-1.969v-2.016h1.969v2.016z"></path>
</svg>

<svg xmlns="http://www.w3.org/2000/svg" width="24" height="24"><path d="M14.016 3.984h1.969V6h-1.969V3.984zm-1.032 3H15V9h-2.016V6.984zm-1.968-3h1.969V6h-1.969V3.984zM18 9h-2.016V6.984H18V9zm.984-3h-1.969V3.984h1.969V6zM21 9h-2.016V6.984H21V9zm.984-3h-1.969V3.984h1.969V6zm-7.359 8.391l-2.531 2.531q-3.797-2.203-6-6l2.531-2.531Q9 8.016 8.906 7.5l-.75-3.703q-.047-.328-.328-.563T7.172 3H3.047q-.422 0-.727.305t-.305.727q.141 2.156.75 4.172t1.688 3.797q1.172 2.063 2.836 3.727t3.727 2.836q1.781 1.031 3.773 1.664t4.195.727q.422.047.727-.258t.305-.727v-4.172q0-.328-.234-.609t-.563-.328l-3.703-.75q-.516-.094-.891.281zm-.609-4.407h1.969V12h-1.969V9.984zm-3 0h1.969V12h-1.969V9.984zM18.984 12h-1.969V9.984h1.969V12zm3 0h-1.969V9.984h1.969V12z"/></svg>
